img/footer_icon_chart.svg

<svg width="14" height="14" viewBox="0 0 14 14" fill="none" xmlns="http://www.w3.org/2000/svg">
<path d="M2.91675 5.36675H4.66675V11.0834H2.91675V5.36675ZM6.18342 2.91675H7.81675V11.0834H6.18342V2.91675ZM9.45008 7.58342H11.0834V11.0834H9.45008V7.58342Z" fill="#FFC600"/>
</svg>

<svg width="14" height="14" fill="none" xmlns="http://www.w3.org/2000/svg"><path d="M2.917 5.367h1.75v5.716h-1.75V5.367zm3.266-2.45h1.634v8.166H6.183V2.917zM9.45 7.583h1.633v3.5H9.45v-3.5z" fill="#FFC600"/></svg>
